source/img/icons/fb.svg

<svg width="8" height="17" viewBox="0 0 8 17" fill="none" xmlns="http://www.w3.org/2000/svg">
<path d="M4.24646 16.9899H1.09275L1.05793 8.49828H0V5.30707H1.05793V3.81124C1.05793 1.42084 2.57654 0 5.21735 0H7.41758V3.18585H5.30841C4.28262 3.18585 4.2478 3.48582 4.2478 4.24914V5.30707H7.42964L7.16716 8.49828H4.2478V16.9899H4.24646Z" fill="currentColor"/>
</svg>

<svg width="8" height="17" fill="none" xmlns="http://www.w3.org/2000/svg"><path d="M4.246 16.99H1.093l-.035-8.492H0v-3.19h1.058V3.81C1.058 1.421 2.577 0 5.218 0h2.2v3.186h-2.11c-1.025 0-1.06.3-1.06 1.063v1.058H7.43l-.263 3.191h-2.92v8.492z" fill="currentColor"/></svg>
